cutejava-front/src/assets/icons/svg/space-manage.svg

<?xml version="1.0" standalone="no"?><!DOCTYPE svg PUBLIC "-//W3C//DTD SVG 1.1//EN" "http://www.w3.org/Graphics/SVG/1.1/DTD/svg11.dtd"><svg t="1608282920484" class="icon" viewBox="0 0 1024 1024" version="1.1" xmlns="http://www.w3.org/2000/svg" p-id="2792" xmlns:xlink="http://www.w3.org/1999/xlink" width="200" height="200"><defs><style type="text/css"></style></defs><path d="M953.168585 254.39666L510.646665 0 68.552301 254.39666v513.068893l442.521921 256.534447 421.14405-242.85261 6.413361-3.848016 14.96451-8.551149z m-289.02881 180.856785L520.480485 684.091858 371.690506 425.419624h287.746138z m-342.045929 61.995824l117.578288 203.517328H211.784034z m382.663883 13.681837l103.896451 189.407934H598.723491zM403.757312 351.024635l106.889353-194.96618 107.744467 196.676409z m38.052609-222.329854L325.514305 339.908142a70.97453 70.97453 0 1 0-67.554071 123.136534l-112.020041 206.082673V300.145303z m68.836744 803.380376l-269.36117-155.630898h201.807099a70.97453 70.97453 0 0 0 70.119415 62.850939h6.840919a70.546973 70.546973 0 0 0 63.278496-61.995824h194.111065z m256.534446-467.747808A70.97453 70.97453 0 1 0 699.62704 342.045929L581.621195 128.267223l295.442171 171.022965v362.568685z" p-id="2793"></path></svg>

<svg class="icon" viewBox="0 0 1024 1024" xmlns="http://www.w3.org/2000/svg" width="200" height="200"><defs><style/></defs><path d="M953.169 254.397L510.647 0 68.552 254.397v513.069L511.074 1024l421.144-242.853 6.414-3.848 14.964-8.55zm-289.03 180.856L520.48 684.092 371.69 425.42h287.747zM322.095 497.25l117.578 203.518H211.784zm382.664 13.682L808.654 700.34h-209.93zm-301-159.906l106.889-194.967L618.39 352.735zm38.052-222.33L325.514 339.908a70.975 70.975 0 1 0-67.554 123.137L145.94 669.127V300.145zm68.837 803.38l-269.362-155.63h201.808a70.975 70.975 0 0 0 70.119 62.85h6.84a70.547 70.547 0 0 0 63.28-61.996h194.11zM767.18 464.327a70.975 70.975 0 1 0-67.554-122.281L581.621 128.267 877.063 299.29V661.86z"/></svg>
